src/dsmComponents/Icons/edit-2-20px.svg

<svg width="20" height="20" xmlns="http://www.w3.org/2000/svg" xmlns:xlink="http://www.w3.org/1999/xlink"><defs><path d="M10.125 4.375l5.5 5.5-9.75 9.75c-.25.25-.5.375-.875.375H1.25C.5 20 0 19.5 0 18.75V15c0-.375.125-.625.375-.875l9.75-9.75zm4-4c.5-.5 1.25-.5 1.75 0l3.75 3.75c.5.5.5 1.25 0 1.75l-2.25 2.25-5.5-5.5z" id="edit-2-20px_svg__a"/></defs><use fill="#737373" xlink:href="#edit-2-20px_svg__a" fill-rule="evenodd"/></svg>

<?xml version="1.0" encoding="UTF-8"?>
<svg width="20px" height="20px" viewBox="0 0 20 20" version="1.1" xmlns="http://www.w3.org/2000/svg" xmlns:xlink="http://www.w3.org/1999/xlink">
    <!-- Generator: Sketch 59.1 (86144) - https://sketch.com -->
    <title>edit-2-20px</title>
    <desc>Created with Sketch.</desc>
    <defs>
        <path d="M10.125,4.375 L15.625,9.875 L5.875,19.625 C5.625,19.875 5.375,20 5,20 L5,20 L1.25,20 C0.5,20 0,19.5 0,18.75 L0,18.75 L0,15 C0,14.625 0.125,14.375 0.375,14.125 L0.375,14.125 L10.125,4.375 Z M14.125,0.375 C14.625,-0.125 15.375,-0.125 15.875,0.375 L15.875,0.375 L19.625,4.125 C20.125,4.625 20.125,5.375 19.625,5.875 L19.625,5.875 L17.375,8.125 L11.875,2.625 Z" id="path-1"></path>
    </defs>
    <g id="Final" stroke="none" stroke-width="1" fill="none" fill-rule="evenodd">
        <g id="All-Nucleo-Icons" transform="translate(-463.000000, -2966.000000)">
            <g id="Solo/Nucleo/20px/edit-2" transform="translate(461.000000, 2964.000000)">
                <g transform="translate(2.000000, 2.000000)" id="pen-01">
                    <g>
                        <g id="Colour/Default-Colour">
                            <mask id="mask-2" fill="white">
                                <use xlink:href="#path-1"></use>
                            </mask>
                            <g id="Mask" fill-rule="nonzero"></g>
                            <g id="colour/neutral/chia" mask="url(#mask-2)" fill="#737373">
                                <g transform="translate(-22.000000, -22.000000)" id="Colour">
                                    <rect x="0" y="0" width="64" height="64"></rect>
                                </g>
                            </g>
                        </g>
                    </g>
                </g>
            </g>
        </g>
    </g>
</svg>
